svg/color/grtx.svg

<svg width="200" height="200" viewBox="0 0 200 200" fill="none" xmlns="http://www.w3.org/2000/svg">
<path d="M31.5952 116.812C43.9826 115.527 55.2905 114.653 66.5128 113.111C98.9803 108.673 130.78 101.579 159.341 84.6675C168.798 79.0645 176.971 71.2683 186 64.2773C185.144 69.332 184.424 74.9693 183.173 80.5038C176.097 112.117 161.294 139.652 139.5 163.555C135.817 167.599 132.27 169.038 126.668 167.907C91.5616 160.814 61.0816 144.913 34.9191 120.599C33.9767 119.725 33.2229 118.663 31.6123 116.812H31.5952Z" fill="#FF7F00"/>
<path d="M31.3404 70.7711C36.8059 71.3879 41.0721 72.2961 45.3554 72.2789C64.9216 72.2446 80.1188 55.9668 79.0908 36.4676C78.5597 26.3411 72.7515 21.8861 62.8142 23.9594C63.6366 19.2817 65.6412 16.7457 71.1581 15.9404C76.3495 15.1865 79.7418 13.0961 83.2713 9.05231C85.807 6.15657 91.2383 5.19703 95.5387 4.58018C109.845 2.52403 119.834 11.3483 120.142 25.8099C120.211 29.2197 120.142 32.6466 120.176 36.0564C120.57 63.4889 144.831 79.4069 170.068 68.7835C170.565 68.5779 171.114 68.4579 172.244 69.0062C170.291 70.4969 168.372 72.0733 166.35 73.4783C146.819 86.9633 124.785 94.3825 101.964 99.8313C100.559 100.174 98.914 100.105 97.4919 99.7628C75.4243 94.4168 54.2133 86.9461 35.3667 73.8896C34.3044 73.1528 33.3107 72.3132 31.3232 70.7882L31.3404 70.7711Z" fill="#FF7F00"/>
<path d="M35.6558 129.302C62.6407 152.056 93.1893 167.135 128.964 173.8C127.01 175.839 125.914 177.279 124.526 178.375C119.763 182.128 115.086 186.017 110.048 189.358C98.3978 197.103 101.053 197 89.4371 189.119C66.667 173.646 48.6942 153.719 35.6387 129.319L35.6558 129.302Z" fill="#FF7F00"/>
<path d="M14.8572 62.2725C33.6524 85.5584 60.1404 95.4793 87.2966 105.263C77.4964 106.702 67.7304 108.347 57.9131 109.495C49.2779 110.506 40.5742 110.935 31.9048 111.637C29.1292 111.86 26.3707 111.86 25.5141 108.484C21.7105 93.4917 17.9926 78.4818 14.2575 63.4719C14.189 63.2149 14.5488 62.8722 14.8572 62.2725Z" fill="#FF7F00"/>
</svg>

<svg xmlns="http://www.w3.org/2000/svg" width="200" height="200" fill="none" viewBox="0 0 200 200"><path fill="#FF7F00" d="M31.595 116.812c12.388-1.285 23.696-2.159 34.918-3.701 32.467-4.438 64.267-11.532 92.828-28.443 9.457-5.604 17.63-13.4 26.659-20.39-.856 5.054-1.576 10.691-2.827 16.226-7.076 31.613-21.879 59.148-43.673 83.051-3.683 4.044-7.23 5.483-12.832 4.352-35.106-7.093-65.586-22.994-91.749-47.308-.942-.874-1.696-1.936-3.307-3.787z"/><path fill="#FF7F00" d="M31.34 70.771c5.466.617 9.732 1.525 14.015 1.508 19.567-.034 34.764-16.312 33.736-35.811-.531-10.127-6.34-14.582-16.277-12.509.823-4.677 2.827-7.213 8.344-8.019 5.192-.753 8.584-2.844 12.113-6.888 2.536-2.895 7.967-3.855 12.268-4.472 14.306-2.056 24.295 6.768 24.603 21.23.069 3.41 0 6.837.034 10.246.394 27.433 24.655 43.35 49.892 32.728.497-.206 1.046-.326 2.176.222-1.953 1.49-3.872 3.067-5.894 4.472-19.531 13.485-41.565 20.905-64.386 26.353-1.405.343-3.05.274-4.472-.068-22.068-5.346-43.279-12.817-62.125-25.873-1.063-.737-2.056-1.577-4.044-3.102zm4.316 58.531c26.985 22.754 57.533 37.833 93.308 44.498-1.954 2.039-3.05 3.479-4.438 4.575-4.763 3.753-9.44 7.642-14.478 10.983-11.65 7.745-8.995 7.642-20.61-.239-22.771-15.473-40.744-35.4-53.8-59.8z"/><path fill="#FF7F00" d="M14.857 62.273c18.795 23.285 45.283 33.206 72.44 42.99-9.8 1.439-19.567 3.084-29.384 4.232-8.635 1.011-17.339 1.44-26.008 2.142-2.776.223-5.534.223-6.39-3.153-3.805-14.992-7.522-30.002-11.257-45.012-.069-.257.29-.6.6-1.2"/></svg>
